svg/fluentui-system-icons/ic_fluent_home_split_20_filled.svg

<svg width="20" height="20" viewBox="0 0 20 20" fill="none" xmlns="http://www.w3.org/2000/svg">
<path d="M11.0034 2.38114C10.433 1.86775 9.56702 1.86775 8.99657 2.38114L3.49657 7.33097C3.18049 7.61543 3 8.02069 3 8.44593V15.5006C3 16.329 3.67157 17.0006 4.5 17.0006H15.5C16.3284 17.0006 17 16.329 17 15.5006V8.44593C17 8.02069 16.8195 7.61543 16.5034 7.33097L11.0034 2.38114ZM10.5 13.5005V14.5005C10.5 14.7766 10.2761 15.0005 10 15.0005C9.72386 15.0005 9.5 14.7766 9.5 14.5005V13.5005C9.5 13.2243 9.72386 13.0005 10 13.0005C10.2761 13.0005 10.5 13.2243 10.5 13.5005ZM10 9.00049C10.2761 9.00049 10.5 9.22435 10.5 9.50049V10.5005C10.5 10.7766 10.2761 11.0005 10 11.0005C9.72386 11.0005 9.5 10.7766 9.5 10.5005V9.50049C9.5 9.22435 9.72386 9.00049 10 9.00049ZM10.5 5.50049V6.50049C10.5 6.77663 10.2761 7.00049 10 7.00049C9.72386 7.00049 9.5 6.77663 9.5 6.50049V5.50049C9.5 5.22435 9.72386 5.00049 10 5.00049C10.2761 5.00049 10.5 5.22435 10.5 5.50049Z" fill="#212121"/>
</svg>

<svg xmlns="http://www.w3.org/2000/svg" width="20" height="20"><path d="M11.003 2.381a1.5 1.5 0 0 0-2.006 0l-5.5 4.95A1.5 1.5 0 0 0 3 8.446V15.5A1.5 1.5 0 0 0 4.5 17h11a1.5 1.5 0 0 0 1.5-1.5V8.446a1.5 1.5 0 0 0-.497-1.115l-5.5-4.95Zm-.503 11.12v1a.5.5 0 0 1-1 0v-1a.5.5 0 1 1 1 0ZM10 9a.5.5 0 0 1 .5.5v1a.5.5 0 0 1-1 0v-1A.5.5 0 0 1 10 9Zm.5-3.5v1a.5.5 0 0 1-1 0v-1a.5.5 0 0 1 1 0Z"/></svg>
